images/37300.svg

<?xml version="1.0" encoding="UTF-8"?>
<svg xmlns="http://www.w3.org/2000/svg" xmlns:xlink="http://www.w3.org/1999/xlink" width="300pt" height="300pt" viewBox="0 0 300 300" version="1.1">
<defs>
<g>
<symbol overflow="visible" id="glyph0-0">
<path style="stroke:none;" d="M 0.453125 1.59375 L 0.453125 -6.34375 L 4.953125 -6.34375 L 4.953125 1.59375 Z M 0.953125 1.09375 L 4.453125 1.09375 L 4.453125 -5.84375 L 0.953125 -5.84375 Z M 0.953125 1.09375 "/>
</symbol>
<symbol overflow="visible" id="glyph0-1">
<path style="stroke:none;" d="M 3.546875 -5.953125 C 2.898438 -5.953125 2.382812 -5.710938 2 -5.234375 C 1.625 -4.753906 1.4375 -4.101562 1.4375 -3.28125 C 1.4375 -2.445312 1.625 -1.789062 2 -1.3125 C 2.382812 -0.832031 2.898438 -0.59375 3.546875 -0.59375 C 4.191406 -0.59375 4.703125 -0.832031 5.078125 -1.3125 C 5.453125 -1.789062 5.640625 -2.445312 5.640625 -3.28125 C 5.640625 -4.101562 5.453125 -4.753906 5.078125 -5.234375 C 4.703125 -5.710938 4.191406 -5.953125 3.546875 -5.953125 Z M 3.546875 -6.6875 C 4.460938 -6.6875 5.195312 -6.375 5.75 -5.75 C 6.300781 -5.132812 6.578125 -4.3125 6.578125 -3.28125 C 6.578125 -2.238281 6.300781 -1.410156 5.75 -0.796875 C 5.195312 -0.179688 4.460938 0.125 3.546875 0.125 C 2.617188 0.125 1.878906 -0.179688 1.328125 -0.796875 C 0.773438 -1.410156 0.5 -2.238281 0.5 -3.28125 C 0.5 -4.3125 0.773438 -5.132812 1.328125 -5.75 C 1.878906 -6.375 2.617188 -6.6875 3.546875 -6.6875 Z M 3.546875 -6.6875 "/>
</symbol>
<symbol overflow="visible" id="glyph0-2">
<path style="stroke:none;" d="M 0.890625 -6.5625 L 2.078125 -6.5625 L 4.984375 -1.078125 L 4.984375 -6.5625 L 5.84375 -6.5625 L 5.84375 0 L 4.65625 0 L 1.75 -5.484375 L 1.75 0 L 0.890625 0 Z M 0.890625 -6.5625 "/>
</symbol>
<symbol overflow="visible" id="glyph0-3">
<path style="stroke:none;" d="M 0.890625 -6.5625 L 1.765625 -6.5625 L 1.765625 -3.875 L 5 -3.875 L 5 -6.5625 L 5.890625 -6.5625 L 5.890625 0 L 5 0 L 5 -3.125 L 1.765625 -3.125 L 1.765625 0 L 0.890625 0 Z M 0.890625 -6.5625 "/>
</symbol>
<symbol overflow="visible" id="glyph1-0">
<path style="stroke:none;" d="M 0.40625 1.421875 L 0.40625 -5.640625 L 4.40625 -5.640625 L 4.40625 1.421875 Z M 0.84375 0.96875 L 3.953125 0.96875 L 3.953125 -5.1875 L 0.84375 -5.1875 Z M 0.84375 0.96875 "/>
</symbol>
<symbol overflow="visible" id="glyph1-1">
<path style="stroke:none;" d="M 3.6875 -5.015625 L 3.6875 -2.84375 L 5.859375 -2.84375 L 5.859375 -2.171875 L 3.6875 -2.171875 L 3.6875 0 L 3.03125 0 L 3.03125 -2.171875 L 0.84375 -2.171875 L 0.84375 -2.84375 L 3.03125 -2.84375 L 3.03125 -5.015625 Z M 3.6875 -5.015625 "/>
</symbol>
<symbol overflow="visible" id="glyph1-2">
<path style="stroke:none;" d="M 1.53125 -0.671875 L 4.296875 -0.671875 L 4.296875 0 L 0.59375 0 L 0.59375 -0.671875 C 0.882812 -0.972656 1.289062 -1.382812 1.8125 -1.90625 C 2.332031 -2.4375 2.65625 -2.773438 2.78125 -2.921875 C 3.039062 -3.203125 3.21875 -3.441406 3.3125 -3.640625 C 3.414062 -3.835938 3.46875 -4.03125 3.46875 -4.21875 C 3.46875 -4.53125 3.359375 -4.785156 3.140625 -4.984375 C 2.921875 -5.179688 2.640625 -5.28125 2.296875 -5.28125 C 2.046875 -5.28125 1.78125 -5.234375 1.5 -5.140625 C 1.226562 -5.054688 0.9375 -4.925781 0.625 -4.75 L 0.625 -5.546875 C 0.945312 -5.679688 1.242188 -5.78125 1.515625 -5.84375 C 1.796875 -5.90625 2.050781 -5.9375 2.28125 -5.9375 C 2.882812 -5.9375 3.363281 -5.785156 3.71875 -5.484375 C 4.082031 -5.179688 4.265625 -4.78125 4.265625 -4.28125 C 4.265625 -4.039062 4.21875 -3.8125 4.125 -3.59375 C 4.03125 -3.375 3.867188 -3.117188 3.640625 -2.828125 C 3.566406 -2.753906 3.351562 -2.535156 3 -2.171875 C 2.65625 -1.816406 2.164062 -1.316406 1.53125 -0.671875 Z M 1.53125 -0.671875 "/>
</symbol>
</g>
</defs>
<g id="surface27449">
<rect x="0" y="0" width="300" height="300" style="fill:rgb(100%,100%,100%);fill-opacity:1;stroke:none;"/>
<path style="fill:none;stroke-width:1.2;stroke-linecap:butt;stroke-linejoin:miter;stroke:rgb(100%,0%,0%);stroke-opacity:1;stroke-miterlimit:10;" d="M 56.371094 160.003906 L 66.082031 153.414062 "/>
<path style="fill:none;stroke-width:1.2;stroke-linecap:butt;stroke-linejoin:miter;stroke:rgb(0%,0%,0%);stroke-opacity:1;stroke-miterlimit:10;" d="M 66.082031 153.414062 L 75.796875 146.828125 "/>
<path style="fill:none;stroke-width:1.2;stroke-linecap:butt;stroke-linejoin:miter;stroke:rgb(100%,0%,0%);stroke-opacity:1;stroke-miterlimit:10;" d="M 56.371094 160.003906 L 45.808594 154.882812 "/>
<path style="fill:none;stroke-width:1.2;stroke-linecap:butt;stroke-linejoin:miter;stroke:rgb(0%,0%,0%);stroke-opacity:1;stroke-miterlimit:10;" d="M 45.808594 154.882812 L 35.25 149.765625 "/>
<path style=" stroke:none;fill-rule:nonzero;fill:rgb(100%,100%,100%);fill-opacity:1;" d="M 52.371094 154.503906 L 60.371094 154.503906 L 60.371094 165.503906 L 52.371094 165.503906 Z M 52.371094 154.503906 "/>
<g style="fill:rgb(100%,0%,0%);fill-opacity:1;">
  <use xlink:href="#glyph0-1" x="52.371094" y="163.166992"/>
</g>
<path style="fill:none;stroke-width:1.2;stroke-linecap:butt;stroke-linejoin:miter;stroke:rgb(0%,0%,0%);stroke-opacity:1;stroke-miterlimit:10;" d="M 78.550781 146.628906 L 77.699219 134.925781 "/>
<path style="fill:none;stroke-width:1.2;stroke-linecap:butt;stroke-linejoin:miter;stroke:rgb(100%,0%,0%);stroke-opacity:1;stroke-miterlimit:10;" d="M 77.699219 134.925781 L 76.851562 123.222656 "/>
<path style="fill:none;stroke-width:1.2;stroke-linecap:butt;stroke-linejoin:miter;stroke:rgb(0%,0%,0%);stroke-opacity:1;stroke-miterlimit:10;" d="M 73.039062 147.027344 L 72.191406 135.324219 "/>
<path style="fill:none;stroke-width:1.2;stroke-linecap:butt;stroke-linejoin:miter;stroke:rgb(100%,0%,0%);stroke-opacity:1;stroke-miterlimit:10;" d="M 72.191406 135.324219 L 71.34375 123.621094 "/>
<path style="fill:none;stroke-width:1.2;stroke-linecap:butt;stroke-linejoin:miter;stroke:rgb(0%,0%,0%);stroke-opacity:1;stroke-miterlimit:10;" d="M 75.796875 146.828125 L 96.914062 157.066406 "/>
<path style=" stroke:none;fill-rule:nonzero;fill:rgb(100%,100%,100%);fill-opacity:1;" d="M 70.097656 117.921875 L 78.097656 117.921875 L 78.097656 128.921875 L 70.097656 128.921875 Z M 70.097656 117.921875 "/>
<g style="fill:rgb(100%,0%,0%);fill-opacity:1;">
  <use xlink:href="#glyph0-1" x="70.097656" y="126.584961"/>
</g>
<path style="fill:none;stroke-width:1.2;stroke-linecap:butt;stroke-linejoin:miter;stroke:rgb(0%,0%,0%);stroke-opacity:1;stroke-miterlimit:10;" d="M 96.914062 157.066406 L 101.046875 180.167969 "/>
<path style="fill:none;stroke-width:1.2;stroke-linecap:butt;stroke-linejoin:miter;stroke:rgb(0%,0%,0%);stroke-opacity:1;stroke-miterlimit:10;" d="M 102.765625 158.402344 L 106.070312 176.886719 "/>
<path style="fill:none;stroke-width:1.2;stroke-linecap:butt;stroke-linejoin:miter;stroke:rgb(0%,0%,0%);stroke-opacity:1;stroke-miterlimit:10;" d="M 117.609375 145.996094 L 96.914062 157.066406 "/>
<path style="fill:none;stroke-width:1.2;stroke-linecap:butt;stroke-linejoin:miter;stroke:rgb(0%,0%,0%);stroke-opacity:1;stroke-miterlimit:10;" d="M 101.046875 180.167969 L 112.671875 181.773438 "/>
<path style="fill:none;stroke-width:1.2;stroke-linecap:butt;stroke-linejoin:miter;stroke:rgb(0%,0%,100%);stroke-opacity:1;stroke-miterlimit:10;" d="M 112.671875 181.773438 L 124.296875 183.375 "/>
<path style="fill:none;stroke-width:1.2;stroke-linecap:butt;stroke-linejoin:miter;stroke:rgb(0%,0%,100%);stroke-opacity:1;stroke-miterlimit:10;" d="M 124.296875 183.375 L 137.472656 202.800781 "/>
<path style="fill:none;stroke-width:1.2;stroke-linecap:butt;stroke-linejoin:miter;stroke:rgb(0%,0%,0%);stroke-opacity:1;stroke-miterlimit:10;" d="M 134.535156 162.257812 L 129.417969 172.816406 "/>
<path style="fill:none;stroke-width:1.2;stroke-linecap:butt;stroke-linejoin:miter;stroke:rgb(0%,0%,100%);stroke-opacity:1;stroke-miterlimit:10;" d="M 129.417969 172.816406 L 124.296875 183.375 "/>
<path style=" stroke:none;fill-rule:nonzero;fill:rgb(100%,100%,100%);fill-opacity:1;" d="M 121.296875 177.875 L 128.296875 177.875 L 128.296875 188.875 L 121.296875 188.875 Z M 121.296875 177.875 "/>
<g style="fill:rgb(0%,0%,100%);fill-opacity:1;">
  <use xlink:href="#glyph0-2" x="121.296875" y="186.538086"/>
</g>
<path style="fill:none;stroke-width:1.2;stroke-linecap:butt;stroke-linejoin:miter;stroke:rgb(0%,0%,100%);stroke-opacity:1;stroke-miterlimit:10;" d="M 137.472656 202.800781 L 149.175781 201.953125 "/>
<path style="fill:none;stroke-width:1.2;stroke-linecap:butt;stroke-linejoin:miter;stroke:rgb(0%,0%,0%);stroke-opacity:1;stroke-miterlimit:10;" d="M 149.175781 201.953125 L 160.878906 201.105469 "/>
<path style="fill:none;stroke-width:1.2;stroke-linecap:butt;stroke-linejoin:miter;stroke:rgb(0%,0%,100%);stroke-opacity:1;stroke-miterlimit:10;" d="M 139.414062 197.125 L 148.777344 196.445312 "/>
<path style="fill:none;stroke-width:1.2;stroke-linecap:butt;stroke-linejoin:miter;stroke:rgb(0%,0%,0%);stroke-opacity:1;stroke-miterlimit:10;" d="M 148.777344 196.445312 L 158.140625 195.765625 "/>
<path style=" stroke:none;fill-rule:nonzero;fill:rgb(100%,100%,100%);fill-opacity:1;" d="M 134.472656 197.300781 L 141.472656 197.300781 L 141.472656 208.300781 L 134.472656 208.300781 Z M 134.472656 197.300781 "/>
<g style="fill:rgb(0%,0%,100%);fill-opacity:1;">
  <use xlink:href="#glyph0-2" x="134.472656" y="205.963867"/>
</g>
<path style="fill:none;stroke-width:1.2;stroke-linecap:butt;stroke-linejoin:miter;stroke:rgb(0%,0%,0%);stroke-opacity:1;stroke-miterlimit:10;" d="M 160.878906 201.105469 L 165.996094 190.546875 "/>
<path style="fill:none;stroke-width:1.2;stroke-linecap:butt;stroke-linejoin:miter;stroke:rgb(0%,0%,100%);stroke-opacity:1;stroke-miterlimit:10;" d="M 165.996094 190.546875 L 171.117188 179.984375 "/>
<path style="fill:none;stroke-width:1.2;stroke-linecap:butt;stroke-linejoin:miter;stroke:rgb(0%,0%,100%);stroke-opacity:1;stroke-miterlimit:10;" d="M 171.117188 179.984375 L 164.527344 170.273438 "/>
<path style="fill:none;stroke-width:1.2;stroke-linecap:butt;stroke-linejoin:miter;stroke:rgb(0%,0%,0%);stroke-opacity:1;stroke-miterlimit:10;" d="M 164.527344 170.273438 L 157.941406 160.558594 "/>
<path style="fill:none;stroke-width:1.2;stroke-linecap:butt;stroke-linejoin:miter;stroke:rgb(0%,0%,100%);stroke-opacity:1;stroke-miterlimit:10;" d="M 165.226562 181.140625 L 159.957031 173.371094 "/>
<path style="fill:none;stroke-width:1.2;stroke-linecap:butt;stroke-linejoin:miter;stroke:rgb(0%,0%,0%);stroke-opacity:1;stroke-miterlimit:10;" d="M 159.957031 173.371094 L 154.6875 165.601562 "/>
<path style=" stroke:none;fill-rule:nonzero;fill:rgb(100%,100%,100%);fill-opacity:1;" d="M 161.117188 172.484375 L 182.117188 172.484375 L 182.117188 187.484375 L 161.117188 187.484375 Z M 161.117188 172.484375 "/>
<g style="fill:rgb(0%,0%,100%);fill-opacity:1;">
  <use xlink:href="#glyph0-2" x="161.117188" y="184.585938"/>
  <use xlink:href="#glyph0-3" x="168.094727" y="184.585938"/>
</g>
<g style="fill:rgb(0%,0%,100%);fill-opacity:1;">
  <use xlink:href="#glyph1-1" x="175.109375" y="179.703125"/>
</g>
<path style="fill:none;stroke-width:1.2;stroke-linecap:butt;stroke-linejoin:miter;stroke:rgb(0%,0%,0%);stroke-opacity:1;stroke-miterlimit:10;" d="M 157.941406 160.558594 L 163.058594 150 "/>
<path style="fill:none;stroke-width:1.2;stroke-linecap:butt;stroke-linejoin:miter;stroke:rgb(0%,0%,100%);stroke-opacity:1;stroke-miterlimit:10;" d="M 163.058594 150 L 168.179688 139.441406 "/>
<path style="fill:none;stroke-width:1.2;stroke-linecap:butt;stroke-linejoin:miter;stroke:rgb(0%,0%,0%);stroke-opacity:1;stroke-miterlimit:10;" d="M 157.941406 160.558594 L 134.535156 162.257812 "/>
<path style="fill:none;stroke-width:1.2;stroke-linecap:butt;stroke-linejoin:miter;stroke:rgb(0%,0%,100%);stroke-opacity:1;stroke-miterlimit:10;" d="M 168.179688 139.441406 L 179.882812 138.59375 "/>
<path style="fill:none;stroke-width:1.2;stroke-linecap:butt;stroke-linejoin:miter;stroke:rgb(0%,0%,0%);stroke-opacity:1;stroke-miterlimit:10;" d="M 179.882812 138.59375 L 191.585938 137.742188 "/>
<path style=" stroke:none;fill-rule:nonzero;fill:rgb(100%,100%,100%);fill-opacity:1;" d="M 161.179688 133.941406 L 175.179688 133.941406 L 175.179688 144.941406 L 161.179688 144.941406 Z M 161.179688 133.941406 "/>
<g style="fill:rgb(0%,0%,100%);fill-opacity:1;">
  <use xlink:href="#glyph0-2" x="161.179688" y="142.604492"/>
  <use xlink:href="#glyph0-3" x="168.157227" y="142.604492"/>
</g>
<path style="fill:none;stroke-width:1.2;stroke-linecap:butt;stroke-linejoin:miter;stroke:rgb(0%,0%,0%);stroke-opacity:1;stroke-miterlimit:10;" d="M 191.585938 137.742188 L 204.761719 157.167969 "/>
<path style="fill:none;stroke-width:1.2;stroke-linecap:butt;stroke-linejoin:miter;stroke:rgb(0%,0%,0%);stroke-opacity:1;stroke-miterlimit:10;" d="M 197.476562 136.585938 L 208.011719 152.125 "/>
<path style="fill:none;stroke-width:1.2;stroke-linecap:butt;stroke-linejoin:miter;stroke:rgb(0%,0%,0%);stroke-opacity:1;stroke-miterlimit:10;" d="M 201.824219 116.625 L 191.585938 137.742188 "/>
<path style="fill:none;stroke-width:1.2;stroke-linecap:butt;stroke-linejoin:miter;stroke:rgb(0%,0%,0%);stroke-opacity:1;stroke-miterlimit:10;" d="M 204.761719 157.167969 L 228.167969 155.472656 "/>
<path style="fill:none;stroke-width:1.2;stroke-linecap:butt;stroke-linejoin:miter;stroke:rgb(0%,0%,0%);stroke-opacity:1;stroke-miterlimit:10;" d="M 228.167969 155.472656 L 238.402344 134.351562 "/>
<path style="fill:none;stroke-width:1.2;stroke-linecap:butt;stroke-linejoin:miter;stroke:rgb(0%,0%,0%);stroke-opacity:1;stroke-miterlimit:10;" d="M 224.222656 150.953125 L 232.410156 134.054688 "/>
<path style="fill:none;stroke-width:1.2;stroke-linecap:butt;stroke-linejoin:miter;stroke:rgb(0%,0%,0%);stroke-opacity:1;stroke-miterlimit:10;" d="M 228.167969 155.472656 L 241.339844 174.898438 "/>
<path style="fill:none;stroke-width:1.2;stroke-linecap:butt;stroke-linejoin:miter;stroke:rgb(0%,0%,0%);stroke-opacity:1;stroke-miterlimit:10;" d="M 238.402344 134.351562 L 225.230469 114.929688 "/>
<path style="fill:none;stroke-width:1.2;stroke-linecap:butt;stroke-linejoin:miter;stroke:rgb(0%,0%,0%);stroke-opacity:1;stroke-miterlimit:10;" d="M 225.230469 114.929688 L 201.824219 116.625 "/>
<path style="fill:none;stroke-width:1.2;stroke-linecap:butt;stroke-linejoin:miter;stroke:rgb(0%,0%,0%);stroke-opacity:1;stroke-miterlimit:10;" d="M 223.289062 120.605469 L 204.5625 121.960938 "/>
<path style="fill:none;stroke-width:1.2;stroke-linecap:butt;stroke-linejoin:miter;stroke:rgb(0%,0%,0%);stroke-opacity:1;stroke-miterlimit:10;" d="M 201.824219 116.625 L 188.648438 97.199219 "/>
<path style="fill:none;stroke-width:1.2;stroke-linecap:butt;stroke-linejoin:miter;stroke:rgb(0%,0%,0%);stroke-opacity:1;stroke-miterlimit:10;" d="M 241.539062 177.652344 L 253.246094 176.804688 "/>
<path style="fill:none;stroke-width:1.2;stroke-linecap:butt;stroke-linejoin:miter;stroke:rgb(100%,0%,0%);stroke-opacity:1;stroke-miterlimit:10;" d="M 253.246094 176.804688 L 264.949219 175.957031 "/>
<path style="fill:none;stroke-width:1.2;stroke-linecap:butt;stroke-linejoin:miter;stroke:rgb(0%,0%,0%);stroke-opacity:1;stroke-miterlimit:10;" d="M 241.140625 172.144531 L 252.847656 171.296875 "/>
<path style="fill:none;stroke-width:1.2;stroke-linecap:butt;stroke-linejoin:miter;stroke:rgb(100%,0%,0%);stroke-opacity:1;stroke-miterlimit:10;" d="M 252.847656 171.296875 L 264.550781 170.449219 "/>
<path style="fill:none;stroke-width:1.2;stroke-linecap:butt;stroke-linejoin:miter;stroke:rgb(0%,0%,0%);stroke-opacity:1;stroke-miterlimit:10;" d="M 241.339844 174.898438 L 236.222656 185.457031 "/>
<path style="fill:none;stroke-width:1.2;stroke-linecap:butt;stroke-linejoin:miter;stroke:rgb(0%,0%,100%);stroke-opacity:1;stroke-miterlimit:10;" d="M 236.222656 185.457031 L 231.105469 196.019531 "/>
<path style=" stroke:none;fill-rule:nonzero;fill:rgb(100%,100%,100%);fill-opacity:1;" d="M 260.75 167.703125 L 268.75 167.703125 L 268.75 178.703125 L 260.75 178.703125 Z M 260.75 167.703125 "/>
<g style="fill:rgb(100%,0%,0%);fill-opacity:1;">
  <use xlink:href="#glyph0-1" x="260.75" y="176.366211"/>
</g>
<path style=" stroke:none;fill-rule:nonzero;fill:rgb(100%,100%,100%);fill-opacity:1;" d="M 212.105469 188.019531 L 231.105469 188.019531 L 231.105469 204.019531 L 212.105469 204.019531 Z M 212.105469 188.019531 "/>
<g style="fill:rgb(0%,0%,100%);fill-opacity:1;">
  <use xlink:href="#glyph0-3" x="212.105469" y="196.682617"/>
</g>
<g style="fill:rgb(0%,0%,100%);fill-opacity:1;">
  <use xlink:href="#glyph1-2" x="219.120117" y="201.56543"/>
</g>
<g style="fill:rgb(0%,0%,100%);fill-opacity:1;">
  <use xlink:href="#glyph0-2" x="224.070312" y="196.682617"/>
</g>
<path style="fill:none;stroke-width:1.2;stroke-linecap:butt;stroke-linejoin:miter;stroke:rgb(0%,0%,0%);stroke-opacity:1;stroke-miterlimit:10;" d="M 134.535156 162.257812 L 117.609375 145.996094 "/>
<path style="fill:none;stroke-width:1.2;stroke-linecap:butt;stroke-linejoin:miter;stroke:rgb(0%,0%,0%);stroke-opacity:1;stroke-miterlimit:10;" d="M 129.015625 164.613281 L 115.476562 151.601562 "/>
<path style="fill:none;stroke-width:1.2;stroke-linecap:butt;stroke-linejoin:miter;stroke:rgb(0%,0%,0%);stroke-opacity:1;stroke-miterlimit:10;" d="M 117.609375 145.996094 L 120.820312 122.746094 "/>
</g>
</svg>

<svg xmlns="http://www.w3.org/2000/svg" xmlns:xlink="http://www.w3.org/1999/xlink" width="300pt" height="300pt" viewBox="0 0 300 300"><defs><symbol overflow="visible"><path d="M.453 1.594v-7.938h4.5v7.938zm.5-.5h3.5v-6.938h-3.5zm0 0"/></symbol><symbol overflow="visible" id="a"><path d="M3.547-5.953c-.65 0-1.164.242-1.547.72-.375.48-.563 1.13-.563 1.952 0 .835.188 1.49.563 1.967.383.48.898.72 1.547.72.644 0 1.156-.24 1.53-.72.376-.476.564-1.132.564-1.968 0-.822-.187-1.474-.562-1.954-.375-.477-.887-.72-1.53-.72zm0-.734c.914 0 1.648.312 2.203.937.55.617.828 1.438.828 2.47 0 1.042-.277 1.87-.828 2.483-.555.617-1.29.922-2.203.922-.93 0-1.668-.305-2.22-.922C.774-1.41.5-2.237.5-3.28c0-1.033.273-1.853.828-2.47.55-.625 1.29-.938 2.22-.938zm0 0"/></symbol><symbol overflow="visible" id="b"><path d="M.89-6.563H2.08l2.906 5.485v-5.484h.86V0H4.656L1.75-5.484V0H.89zm0 0"/></symbol><symbol overflow="visible" id="c"><path d="M.89-6.563h.876v2.688H5v-2.688h.89V0H5v-3.125H1.766V0H.89zm0 0"/></symbol><symbol overflow="visible"><path d="M.406 1.422V-5.64h4V1.42zM.844.97h3.11v-6.157H.843zm0 0"/></symbol><symbol overflow="visible" id="d"><path d="M3.688-5.016v2.172h2.17v.672H3.69V0H3.03v-2.172H.845v-.672H3.03v-2.172zm0 0"/></symbol><symbol overflow="visible" id="e"><path d="M1.53-.672h2.767V0H.594v-.672c.29-.3.695-.71 1.22-1.234.518-.532.842-.867.967-1.016.26-.28.44-.52.533-.72.1-.194.156-.39.156-.577 0-.31-.11-.565-.33-.764-.218-.196-.5-.297-.843-.297-.25 0-.516.046-.797.14-.273.085-.563.214-.875.39v-.797c.32-.133.617-.234.89-.297.282-.062.536-.093.766-.093.603 0 1.083.152 1.44.453.362.304.546.703.546 1.203 0 .24-.047.468-.14.686-.095.22-.26.477-.485.766-.074.074-.288.293-.64.656-.344.356-.836.856-1.47 1.5zm0 0"/></symbol></defs><g><path fill="#fff" d="M0 0h300v300H0z"/><path d="M56.37 160.004l9.712-6.59" stroke-width="1.2" stroke="#f00" stroke-miterlimit="10" fill="none"/><path d="M66.082 153.414l9.715-6.586" stroke-width="1.2" stroke="#000" stroke-miterlimit="10" fill="none"/><path d="M56.37 160.004l-10.56-5.12" stroke-width="1.2" stroke="#f00" stroke-miterlimit="10" fill="none"/><path d="M45.81 154.883l-10.56-5.117" stroke-width="1.2" stroke="#000" stroke-miterlimit="10" fill="none"/><path d="M52.37 154.504h8v11h-8zm0 0" fill="#fff"/><use xlink:href="#a" x="52.371" y="163.167" fill="#f00"/><path d="M78.55 146.63l-.85-11.704" stroke-width="1.2" stroke="#000" stroke-miterlimit="10" fill="none"/><path d="M77.7 134.926l-.848-11.703" stroke-width="1.2" stroke="#f00" stroke-miterlimit="10" fill="none"/><path d="M73.04 147.027l-.85-11.703" stroke-width="1.2" stroke="#000" stroke-miterlimit="10" fill="none"/><path d="M72.19 135.324l-.846-11.703" stroke-width="1.2" stroke="#f00" stroke-miterlimit="10" fill="none"/><path d="M75.797 146.828l21.117 10.238" stroke-width="1.2" stroke="#000" stroke-miterlimit="10" fill="none"/><path d="M70.098 117.922h8v11h-8zm0 0" fill="#fff"/><use xlink:href="#a" x="70.098" y="126.585" fill="#f00"/><path d="M96.914 157.066l4.133 23.102M102.766 158.402l3.304 18.485M117.61 145.996l-20.696 11.07M101.047 180.168l11.625 1.605" stroke-width="1.2" stroke="#000" stroke-miterlimit="10" fill="none"/><path d="M112.672 181.773l11.625 1.602M124.297 183.375l13.176 19.426" stroke-width="1.2" stroke="#00f" stroke-miterlimit="10" fill="none"/><path d="M134.535 162.258l-5.117 10.558" stroke-width="1.2" stroke="#000" stroke-miterlimit="10" fill="none"/><path d="M129.418 172.816l-5.12 10.56" stroke-width="1.2" stroke="#00f" stroke-miterlimit="10" fill="none"/><path d="M121.297 177.875h7v11h-7zm0 0" fill="#fff"/><use xlink:href="#b" x="121.297" y="186.538" fill="#00f"/><path d="M137.473 202.8l11.703-.847" stroke-width="1.2" stroke="#00f" stroke-miterlimit="10" fill="none"/><path d="M149.176 201.953l11.703-.848" stroke-width="1.2" stroke="#000" stroke-miterlimit="10" fill="none"/><path d="M139.414 197.125l9.363-.68" stroke-width="1.2" stroke="#00f" stroke-miterlimit="10" fill="none"/><path d="M148.777 196.445l9.364-.68" stroke-width="1.2" stroke="#000" stroke-miterlimit="10" fill="none"/><path d="M134.473 197.3h7v11h-7zm0 0" fill="#fff"/><use xlink:href="#b" x="134.473" y="205.964" fill="#00f"/><path d="M160.88 201.105l5.116-10.558" stroke-width="1.2" stroke="#000" stroke-miterlimit="10" fill="none"/><path d="M165.996 190.547l5.12-10.563M171.117 179.984l-6.59-9.71" stroke-width="1.2" stroke="#00f" stroke-miterlimit="10" fill="none"/><path d="M164.527 170.273l-6.586-9.714" stroke-width="1.2" stroke="#000" stroke-miterlimit="10" fill="none"/><path d="M165.227 181.14l-5.27-7.77" stroke-width="1.2" stroke="#00f" stroke-miterlimit="10" fill="none"/><path d="M159.957 173.37l-5.27-7.768" stroke-width="1.2" stroke="#000" stroke-miterlimit="10" fill="none"/><path d="M161.117 172.484h21v15h-21zm0 0" fill="#fff"/><g fill="#00f"><use xlink:href="#b" x="161.117" y="184.586"/><use xlink:href="#c" x="168.095" y="184.586"/></g><use xlink:href="#d" x="175.109" y="179.703" fill="#00f"/><path d="M157.94 160.56l5.12-10.56" stroke-width="1.2" stroke="#000" stroke-miterlimit="10" fill="none"/><path d="M163.06 150l5.12-10.56" stroke-width="1.2" stroke="#00f" stroke-miterlimit="10" fill="none"/><path d="M157.94 160.56l-23.405 1.698" stroke-width="1.2" stroke="#000" stroke-miterlimit="10" fill="none"/><path d="M168.18 139.44l11.703-.846" stroke-width="1.2" stroke="#00f" stroke-miterlimit="10" fill="none"/><path d="M179.883 138.594l11.703-.852" stroke-width="1.2" stroke="#000" stroke-miterlimit="10" fill="none"/><path d="M161.18 133.94h14v11h-14zm0 0" fill="#fff"/><g fill="#00f"><use xlink:href="#b" x="161.18" y="142.604"/><use xlink:href="#c" x="168.157" y="142.604"/></g><path d="M191.586 137.742l13.176 19.426M197.477 136.586l10.535 15.54M201.824 116.625l-10.238 21.117M204.762 157.168l23.406-1.695M228.168 155.473l10.234-21.12M224.223 150.953l8.187-16.898M228.168 155.473l13.172 19.425M238.402 134.352L225.23 114.93M225.23 114.93l-23.406 1.695M223.29 120.605l-18.727 1.356M201.824 116.625L188.648 97.2M241.54 177.652l11.706-.847" stroke-width="1.2" stroke="#000" stroke-miterlimit="10" fill="none"/><path d="M253.246 176.805l11.703-.848" stroke-width="1.2" stroke="#f00" stroke-miterlimit="10" fill="none"/><path d="M241.14 172.145l11.708-.848" stroke-width="1.2" stroke="#000" stroke-miterlimit="10" fill="none"/><path d="M252.848 171.297l11.703-.848" stroke-width="1.2" stroke="#f00" stroke-miterlimit="10" fill="none"/><path d="M241.34 174.898l-5.117 10.56" stroke-width="1.2" stroke="#000" stroke-miterlimit="10" fill="none"/><path d="M236.223 185.457l-5.118 10.563" stroke-width="1.2" stroke="#00f" stroke-miterlimit="10" fill="none"/><path d="M260.75 167.703h8v11h-8zm0 0" fill="#fff"/><use xlink:href="#a" x="260.75" y="176.366" fill="#f00"/><path d="M212.105 188.02h19v16h-19zm0 0" fill="#fff"/><use xlink:href="#c" x="212.105" y="196.683" fill="#00f"/><use xlink:href="#e" x="219.12" y="201.565" fill="#00f"/><use xlink:href="#b" x="224.07" y="196.683" fill="#00f"/><path d="M134.535 162.258l-16.926-16.262M129.016 164.613l-13.54-13.01M117.61 145.996l3.21-23.25" stroke-width="1.2" stroke="#000" stroke-miterlimit="10" fill="none"/></g></svg>
